X:1
T:Amor, io sento l'alma
T:Girolamo Scotto
T:Source : Secondo Libro delle Muse a tre voci---Venetia---G.Scotto---1562. Editor : André Vierendeels (02/06/16).
T:Notes : Original clefs : C2, C3, C4 Editorial accidentals above the staff Text by Niccolo Machiavelli m 64 in A, "D"  add by editor m 65 in A  "C" notated as "D" in original print "Primi toni"  
T:Amor, io sento l'alma
T:©
T:©
T:©
T:©
T:©
T:©
T:©
C:Girolamo Scotto
Z:©
%%score [ 1 [ 2 3 ] ]
L:1/8
Q:1/4=97
M:4/4
K:F
V:1 treble nm="Alto" snm="A"
V:2 treble-8 nm="Tenor 1" snm="T 1"
V:3 treble-8 nm="Tenor 2" snm="T 2"
V:1
 G8 | A8 | z2 A2 A2 A2 | F3 G A2 D2 | A2 A4 G2 | A8 | z2 F2 F2 F2 | G2 D2 F3 G | A2 G4 F2 | %9
w: A-|mor,|io sen- to|l'al- * ma, io|sen- to l'al-|ma,|tor- nar nel|fuoc' ov' io _|fui pri- *|
 G2 D2 D2 D2 | E2 F2 D3 E | F2 E2 D4 | E3 D EF G2- | GE F2 GFED | C2 F3 D G2- | G2 F2 G2 D2 | %16
w: ma, et piu che|mai d'ar- der _|_ _ de-|si- * * * *|||* * o, e|
 G2 G2 F2 D2 | E2 E3 F G2 | A2 G4 F2 | G8 || F8 | D4 F4 | E2 A4 G2 | A8- | A4 z2 D2 | A2 A2 G2 E2 | %26
w: piu che mai d'ar-|der de- * *|si- * *|o.|S'tu|mi rac-|cend' il co-|re,|_ et|i- o son con-|
 F4 E4 | D4 z2 F2 | G2 A2 F2 F2 | E4 D2 G2- | GFED E2 F2- | FE D4 C2 | B,2 A,3 B, C2- | CA, D4 C2 | %34
w: ten _|to, et|ri- tor- no'hu- mil-|men- te'al gio-||* * * go'an-|ti- * * *||
 D4 C4 | C2 C4 F2- | F2 E2 D2 A2- | AG G4 F2 | G8 | z4 z2 A2 | A2 A2 G2 F2- | FEDC D2 G2- | %42
w: co, o-|pra ch'el mio|_ _ _ si-|* * gno- *|re,|par-|te del fuo- *|* * * * co, fuo-|
 G2 A4 F2- | F2 E2 F2 C2 | C4 C4 | F4 E2 G2 | A2 A2 G2 F2- | FEFG A2 A2- | A2 G2 F2 _E2- | %49
w: * co sen-|* * ta, ov'|io dolc'|ar- do et|miei pen- * *|* * * * * sier|_ nu- tri- *|
 ED D3 B, C2 | D2 F4 D2- | D2 G2 F2 E2 | D2 E2 D2 F2- | F2 E2 F2 x2 | C2 F4 D2 | A2 G2 F4 | %56
w: |sco, fa che|_ pon- ga'in o-|bli- * * *|* * o,|fa che pon-|ga'in o- bli-|
 E4 z2 D2 | E2 F2 G2 A2- | AGFE D2 E2- | E2 F2 D2 G2- |"^#" G2 F2 G2 D2 | E2 F2 G2 A2- | %62
w: o, mia|fug' e di gl'il|_ _ _ _ _ mio|_ no- vo de-|* si- o, mio|no- vo de- si-|
 AGFE D2 E2- | E2 F2 D4 | C2 G4 F2 | G8 |] %66
w: * * * * o, mio|_ no- vo|de- si- *|o.|
V:2
 e8 | f8 | z2 f2 f2 f2 | d4 c2 =B2 | c2 d2 B2 c2 | z2 c2 c2 c2 | d4 c2 d2 | B4 A2 d2- | dc B2 A4 | %9
w: A-|mor,|io sen- to|l'al- ma, io|sen- to l'al- ma,|tor- nar nel|fuoc' ov' io|fui pri- *||
 G2 B2 B2 B2 | c2 d2 B2 B2 | A2 c4 B2 | c4 z2 G2 | c2 c2 B2 G2 | A3 G AB c2 | B2 A2 B3 A | %16
w: ma et piu che|mai d'ar- der de-|si- * *|o, et|piu che mai d'ar-|der de- si- * *|* * o, e|
 G2 c2 A2 B2 | G2 G2 c4- | c2 B2 A4 | G8 || A8 | B4 A3 B | c2 c2 d4 | e2 f2 f2 f2 | e2 f2 d2 f2- | %25
w: piu che mai d'ar-|der de- si-||o.|S'tu|mi rac- *|cend' il co-|re, et io me|son con- ten- *|
 fedc B2 c2 | A2 d4 c2 | d2 G2 d2 d2 | c2 A2 B2 A2- | AB c4 B2 | c3 B G2 F2 | A2 B2 G4 | %32
w: ||to, et ri- tor-|no'hu- mil- men- te'al|_ _ _ gio-|* * * go'an-|ti- * co,|
 d4 c2 A2- | A2 B2 G4 | A8 | A4 A4 | c4 B2 A2 | B4 A4 | G4 z2 d2 | d2 d2 c2 c2 | f4 c4 | %41
w: al gio- go'an-|* ti- *|co,|o- pra|ch'el mio si-|gno- *|re, par-|te nel fuo- co|sen- ta,|
 d2 B3 A G2 | c4 c2 d2 | G4 z2 A2 | A4 A4 | d4 c4- | c4 z2 c2 | d2 d2 c2 A2 | B4 A2 c2 | B2 A4 G2 | %50
w: del fuo- * *|co sen- *|ta, ov'|io dolc'|ar- do|_ et|miei pen- sier nu-|tri- sco, nu-|tri- * *|
 A8 | z2 B4 G2- | G2 c2 B2 A2 | G4 F2 A2- | A2 d3 c B2 | A2 c4 B2 | cBAG A2 A2 | G2 F2 c2 c2 | %58
w: sco,|fa che|_ pon- ga'in o-|bli- o, in|_ o- * *|* bli- *|* * * * o, mia|fug' e di gl'il|
 d3 c BA G2- | G2 F2 B2 B2 | A4 G2 B2 | c2 d2 c4 | d3 c BA G2- | G2 F2 B3 A | G2 B2 A4 | G8 |] %66
w: mio _ _ _ _|_ no- vo de-|si- o, mia|fug' e di|gl'il _ _ _ mio|_ no- vo de-|si- * *|o.|
V:3
 c8 | F8 | z2 D2 D2 D2 | B4 A2 G2 |"^#" F2 D2 G4 | D2 F2 F2 F2 | B4 A2 B2 | G4 D3 E | F2 G2 D4 | %9
w: A-|mor,|io sen- to|l'al- ma, io|sen- to l'al-|ma, tor- nar vel|fuoc' ov' io|fui pri- *||
 G8 | z2 D2 G2 G2 | F2 C2 G4 | C2 c4 B2 | A4 G2 C2 | F3 E D2 C2 | D4 G4 | C4 D2 G2- | GFED C2 E2 | %18
w: ma|et piu che|mai d'ar- der|de- si- *|* o, et|piu _ _ che|mai de-|si- * *||
 F2 G2 D4 | G8 || D8 | G4 D4 | A2 A2 B4 | A2 D2 d2 d2 | c2 d2 B4 | F4 z2 A2 | F2 D2 A4 | %27
w: |o.|S'tu|mi rac-|cend' il co-|re, et io me|son con- ten-|to, et|ri- tor- no|
 B3 A G2 F2 | E2 F2 D4 | C4 G4 | C6 D2 | F2 G2 _E4 | D3 E F4- | F2 D2 _E4 | D4 F4 | F4 F4 | A4 D4 | %37
w: hu- * * mil-|men- te'al gio-|go an-|ti- co'al|gio- go'an- ti|_ _ _||co, o-|pra ch'el|mio si-|
 G4 D4 | z2 G2 G2 G2 | F2 D2 E2 F2- | F2 ED E2 F2 | D2 G4 E2- | E2 F3 E D2 | C4 z2 F2 | F4 F4 | %45
w: gno- re,|par- te del|fuo- co sen- *||* ta, sen-||ta, ov'|io dolc'|
 D4 A2 E2 | F2 F2 D2 A2 | B4 A2 F2 | G3 G D2 C2 | D4 _E4 | D8 | z8 | z8 | z4 z2 F2- | F2 D4 G2 | %55
w: ar- do, et|miei pen- sier nu-|tri- sco, et|miei pen- sier nu-|tri- *|sco,|||fa|_ che pon-|
 F2 E2 D4 | C4 F4 | E2 D2 E2 F2 | D4 G2 C2- |"^#" C2 D2 G4 | D4 G3 F | E2 D2 E2 F2 | D4 G2 C2- | %63
w: ga'in o- bli-|o, mia|fug' e di gl'il|mio no- vo|_ de- si-|* o, mio|no- vo de- *|si o, no-|
 C2 D2 G3 F | E2 G2 D4 | G8 |] %66
w: * * vo de-|si- * *|o.|

